X:1
T:Aye Waukin', O!
M:4/4
L:1/8
K:C
 c2 cBA-G E2| c3/2 B/2 Ac d2 GG| c2 cB A3/2 G/2 E E/2E/2| A B/2B/2 cB A2 G2|\
 G2 E3/2 D/2 C3 z| EC G3/2 F/2 E c3| G3/2 F/2 ED C2 z G| AG cB B2 A2|\
 G- E3 E- D2 C| C4 z4|

